X:035 
T:Comin' Thro' the Rye  
F:file ID: cre.5/035comin
B:CRE5.077 (Ag Teacht TrÃÂÃÂÃÂÃÂ­d na Seagal)
M:12/8
Q:160
R:jig
K:D
B|ABc A2f e2d e2f|A2A BAB d3 d2B|
ABc A2f e2d e2f|A2A BAB d3 d2f||
a2f d2f e2d e2f|a2f dfa b3 b3|
a2f g2e fed e2f|A2A BAB d3 d2 ||

%%%

